_assets/images/youtube.svg

<svg height="124" viewBox="0 0 176 124" width="176" xmlns="http://www.w3.org/2000/svg" xmlns:xlink="http://www.w3.org/1999/xlink"><mask id="a" fill="#fff"><path d="m.06.04h175.94v123.96h-175.94z" fill="#fff" fill-rule="evenodd"/></mask><g fill="none" fill-rule="evenodd"><path d="m172.322 19.363c-2.024-7.622-7.987-13.624-15.56-15.661-13.725-3.702-68.762-3.702-68.762-3.702s-55.037 0-68.762 3.702c-7.572 2.037-13.536 8.039-15.56 15.661-3.678 13.814-3.678 42.637-3.678 42.637s0 28.822 3.678 42.638c2.024 7.621 7.988 13.623 15.56 15.661 13.725 3.701 68.762 3.701 68.762 3.701s55.037 0 68.762-3.701c7.573-2.038 13.536-8.04 15.56-15.661 3.678-13.816 3.678-42.638 3.678-42.638s0-28.823-3.678-42.637" fill="#222321" mask="url(#a)"/><path d="m70 88.169 46-26.168-46-26.17z" fill="#fffffe"/></g></svg>

<?xml version="1.0" encoding="UTF-8"?>
<svg width="176px" height="124px" viewBox="0 0 176 124" version="1.1" xmlns="http://www.w3.org/2000/svg" xmlns:xlink="http://www.w3.org/1999/xlink">
    <!-- Generator: Sketch 57.1 (83088) - https://sketch.com -->
    <title>yt_icon_mono_light</title>
    <desc>Created with Sketch.</desc>
    <defs>
        <polygon id="path-1" points="0.06 0.04 176 0.04 176 124 0.06 124"></polygon>
    </defs>
    <g id="yt_icon_mono_light" stroke="none" stroke-width="1" fill="none" fill-rule="evenodd">
        <g id="Group-3">
            <mask id="mask-2" fill="white">
                <use xlink:href="#path-1"></use>
            </mask>
            <g id="Clip-2"></g>
            <path d="M172.322,19.363 C170.298,11.741 164.335,5.739 156.762,3.702 C143.037,0 88,0 88,0 C88,0 32.963,0 19.238,3.702 C11.666,5.739 5.702,11.741 3.678,19.363 C0,33.177 0,62 0,62 C0,62 0,90.822 3.678,104.638 C5.702,112.259 11.666,118.261 19.238,120.299 C32.963,124 88,124 88,124 C88,124 143.037,124 156.762,120.299 C164.335,118.261 170.298,112.259 172.322,104.638 C176,90.822 176,62 176,62 C176,62 176,33.177 172.322,19.363" id="Fill-1" fill="#222321" mask="url(#mask-2)"></path>
        </g>
        <polyline id="Fill-4" fill="#FFFFFE" points="70 88.169 116 62.001 70 35.831 70 88.169"></polyline>
    </g>
</svg>
